X:358
T:La redova
C:trad.
A:Gers
O:France
Z:S. Piron
M:2/4
L:1/8
Q:1/4=180
K:G
BAG2|F2EF|E2D2|EDEC|B,4|CB,CD|
E2EF|G2F2|E2D2|CB,CD|E2EF|G2F2|E4||
